X: 29209
T: New Custom House, The
R: reel
M: 4/4
K: Dmixolydian
|:ADdD (3EFG AB|cAGE cEGB|ADdD (3EFG AB|c3 ^c dcAG|
AD D2 (3EFG AB|cAGE cEGB|ADdD (3EFG AB|cAGE EDD2:|
|:Ad d2 Adfd|ed^cd efg2|Ad (3B^cd Adfd|ed^cd eddB|
Ad (3B^cd Adfd|ed^cd efge|faag efge|1 (3fga ge eddc:|2 (3fga ge d2B||

